src/assets-svg/facebook.svg

<svg width="7" height="13" viewBox="0 0 7 13" fill="none" xmlns="http://www.w3.org/2000/svg">
<path d="M0.611999 6.79864H1.95083V12.3672C1.95083 12.4771 2.039 12.5662 2.14783 12.5662H4.41787C4.5267 12.5662 4.61487 12.4771 4.61487 12.3672V6.82489H6.15399C6.25406 6.82489 6.33827 6.74902 6.3497 6.64859L6.58345 4.59855C6.58987 4.54215 6.57219 4.48566 6.53484 4.44334C6.49746 4.40099 6.44395 4.37675 6.38779 4.37675H4.61496V3.09167C4.61496 2.7043 4.82141 2.50785 5.22866 2.50785C5.2867 2.50785 6.38779 2.50785 6.38779 2.50785C6.49662 2.50785 6.58479 2.41873 6.58479 2.30883V0.427057C6.58479 0.317109 6.49662 0.228033 6.38779 0.228033H4.79032C4.77906 0.227478 4.75404 0.226562 4.71716 0.226562C4.43998 0.226562 3.47654 0.281536 2.71549 0.988872C1.87225 1.77273 1.98947 2.71124 2.01748 2.87397V4.3767H0.611975C0.503147 4.3767 0.414978 4.46578 0.414978 4.57573V6.59959C0.415002 6.70952 0.503171 6.79864 0.611999 6.79864Z" fill="#385C8E"/>
</svg>

<svg width="7" height="13" fill="none" xmlns="http://www.w3.org/2000/svg"><path d="M.612 6.799h1.339v5.568c0 .11.088.2.197.2h2.27c.109 0 .197-.09.197-.2V6.825h1.539c.1 0 .184-.076.196-.176l.233-2.05a.2.2 0 0 0-.048-.156.196.196 0 0 0-.147-.066H4.615V3.092c0-.388.206-.584.614-.584h1.159c.109 0 .197-.09.197-.2V.429a.198.198 0 0 0-.197-.2H4.79L4.717.227c-.277 0-1.24.055-2.002.762-.843.784-.726 1.722-.698 1.885v1.503H.612a.198.198 0 0 0-.197.199V6.6c0 .11.088.199.197.199Z" fill="#385C8E"/></svg>
